X:1
T:Canon fuga in diatessaron.
T:Canon fuga in diatessaron.
%%score [ { 1 2 } { 3 4 } ]
L:1/8
Q:1/4=60
M:4/1
K:C
V:1 alto nm="Contratenor comes"
V:2 tenor nm="Contratenor dux"
V:3 tenor nm="Bassus comes"
V:4 bass nm="Bassus dux"
V:1
 z16 G8 _B8 | A6 G2 c16 B8 | c16 _B8 A8- | A4 G4 G16 ^F8 | G16 z8 E8 | F8 F8 E8 D8- | %6
w: Sal- ve|ra- * * *|dix va- ri-||os pro-|du- cens ger- mi-|
 D4 C4 C16 B,8 | C12 _B,2 A,2 A,8 A8 | G8 _B12 _A4 _A8- | A8 G8 _A12 c4 | _B8 _A12 _G4 _G8- | %11
w: * * ne ra-|mos, * * * Quos|in- ter * ra-|* mus su- *|* per- * e-|
 G8 F8 _G16 | _A8 _G12 _F4 _F8- | F8 _E8 _F16 | z8 _D8 _C8 _E8- | E4 _D4 _D16 C8 | _D16 z8 _E8 | %17
w: * mi- net|al- ti- or u-|* * nus,|Cu- ius et|* ex sum- *|mo pur-|
 _F8 _F8 _E8 _D8- | D4 _C4 _C16 _B,8 | _C12 __B,2 _A,2 _A,8 _A8 | _G8 __B12 __A4 __A8- | %21
w: pu- ra ro- *|* * sa mi-|cat, * * * Qua|stant u- * na-|
 A8 _G8 __A16 | z8 __A8 B8 B8 | __A8 __G12 __F4 __F8- | F8 __E8 __F16 | z8 B8 __A4 __G4 __c8- | %26
w: * ni- mes|pax et iu-|sti- * ti- a|* se- pte,|Clau- dun- tur- que|
 c8 __B8 __c16 | z8 __A8 B8 B8 | __A6 __G2 __c8 B8 __A8- | %29
w: * fo- ras|dis- so- na|cor- * * * *|
[Q:1/4=56] A4 __G4[Q:1/4=54] __G16[Q:1/4=50] _F8[Q:1/4=52] | !fermata!__G32 |] %31
w: * * da se-|num.|
V:2
 D8 F8 E6 D2 G8- | G8 ^F8 G16 | F8 E12 D4 D8- | D8 ^C8 D16 | z8 B,8 C8 C8 | _B,8 A,12 G,4 G,8- | %6
w: Sal- ve ra- * *|* * dix|va- ri- * *|* * os|pro- du- cens|ger- mi- * ne|
 G,8 ^F,8 G,12 =F,2 E,2 | E,8 E8 D8 F8- | F4 _E4 _E16 D8 | _E12 G4 F8 _E8- | E4 _D4 _D16 C8 | %11
w: * ra- mos, * *|* Quos in- ter|* * ra- mus|su- * * per-|* * e- mi-|
 _D16 _E8 _D8- | D4 _C4 _C16 _B,8 | _C16 z8 _A,8 | _G,8 __B,12 _A,4 _A,8- | A,8 _G,8 _A,16 | %16
w: net al- ti-|* or u- *|nus, Cu-|ius et ex sum-|* * mo|
 z8 _B,8 _C8 _C8 | __B,8 _A,12 _G,4 _G,8- | G,8 F,8 _G,12 _F,2 _E,2 | _E,8 _E8 _D8 _F8- | %20
w: pur- pu- ra|ro- * * sa|* mi- cat, * *|* Qua stant u-|
 F4 __E4 __E16 _D8 | __E16 z8 __E8 | __F8 __F8 __E8 __D8- | D4 __C4 __C16 __B,8 | __C16 z8 __F8 | %25
w: * * na- ni-|mes pax|et iu- sti- *|* ti- a se-|pte, Clau-|
 __E4 __D4 __G16 _F8 | __G16 z8 __E8 | __F8 __F8 __E6 __D2 __G8 | __F8 __E12 __D4 __D8- | %29
w: dun- tur- que fo-|ras dis-|so- na cor- * *|* * * da|
 D8 _C8 !fermata!__D16- | D16 x16 |] %31
w: * se- num.||
V:3
 z16 z8 G,8 | C16 D16 | C16 z8 F,8 | G,16 A,16 | G,16 z8 C,8 | F,8 F,8 G,8 G,8 | C,16 D,16 | %7
w: Sal-|ve ra-|dix va-|ri- *|os pro-|du- cens ger- mi-|ne ra-|
 C,16 z8 F,8 | G,8 G,8 _A,16 | _B,16 _A,16 | z8 _D8 _G,16 | _A,8 _A,8 _G,16 | z8 _C8 _F,8 _F,8 | %13
w: mos, Quos|in- ter ra-|* mus|su- per-|e- mi- net|al- ti- or|
 _G,16 _F,16 | z8 _G,8 _C,8 _C,8 | _D,16 _E,16 | _D,16 z8 _C,8 | _F,8 _F,8 _G,16 | _C,16 _D,16 | %19
w: u- nus,|Cu- ius et|ex sum-|mo, pur-|pu- ra ro-|sa mi-|
 _C,16 z8 _F,8 | _G,8 _G,8 __A,16 | __B,16 __A,16 | z8 __D8 __G,8 __G,8 | __C8 __C8 __F,16 | %24
w: cat, Qua|stant u- na-|ni- mes|pax et iu-|sti- ti- a|
 __G,16 __F,16 | z8 __G,8 __C8 __C8 | __D16 __C16 | __F,16 z8 __G,8 | __C8 __C8 __D16 | %29
w: se- pte,|Clau- dun- tur-|que fo-|ras dis-|so- na cor-|
 __G,16 __A,16 | __G,16 !fermata!__G,4- !fermata!x12 |] %31
w: * da|se- num.|
V:4
 z8 D,8 G,16 | A,16 G,16 | z8 C,8 D,16 | E,16 D,16 | z8 G,,8 C,8 C,8 | D,8 D,8 G,,16 | %6
w: Sal- ve|ra- dix|va- ri-|* os|pro- du- cens|ger- mi- ne|
 A,,16 G,,16 | z8 C,8 D,8 D,8 | _E,16 F,16 | _E,16 z8 _A,8 | _D,16 _E,8 _E,8 | _D,16 z8 _G,8 | %12
w: ra- mos,|Quos in- ter|ra- *|mus su-|per- e- mi-|net al-|
 _C,8 _C,8 _D,16 | _C,16 z8 _D,8 | _G,,8 _G,,8 _A,,16 | __B,,16 _A,,16 | z8 _G,,8 _C,8 _C,8 | %17
w: ti- or u-|nus, Cu-|ius et ex|sum- mo|pur- pu- ra|
 _D,16 _G,,16 | _A,,16 _G,,16 | z8 _C,8 _D,8 _D,8 | __E,16 _F,16 | __E,16 z8 __A,8 | %22
w: ro- sa|mi- cat,|Qua stant u-|na- ni-|mes pax|
 __D,8 __D,8 __G,8 __G,8 | __C,16 __D,16 | __C,16 z8 __D,8 | __G,8 __G,8 __A,16 | __G,16 __C,16 | %27
w: et iu- sti- ti-|a se-|pte, Clau-|dun- tur- que|fo- ras|
 z8 __D,8 __G,8 __G,8 | __A,16 __D,16 | __E,16 __D,16 | !fermata!__G,,32 |] %31
w: dis- so- na|cor- *|da se-|num.|

